flaticon/symbols/perseverance.svg

<svg xmlns="http://www.w3.org/2000/svg" width="32" height="32" viewBox="0 0 24 24">
    <path d="M 19.75 21.222656 C 19.191406 21.183594 18.527344 21.046875 18.230469 20.667969 C 21.347656 18.789062 23.390625 15.566406 23.390625 12 C 23.390625 8.386719 21.292969 5.121094 18.105469 3.257812 C 18.289062 2.671875 19.191406 2.515625 19.75 2.476562 C 20.136719 2.449219 20.5 2.257812 20.746094 1.957031 C 20.976562 1.671875 21.082031 1.316406 21.03125 0.960938 C 20.964844 0.449219 20.605469 0.105469 20.050781 0.0234375 C 20.023438 0.0195312 17.1875 -0.347656 16.003906 2.292969 C 15.371094 2.074219 14.714844 1.910156 14.035156 1.796875 L 14.035156 1.234375 C 14.035156 0.554688 13.480469 0 12.800781 0 L 11.203125 0 C 10.519531 0 9.964844 0.554688 9.964844 1.234375 L 9.964844 1.796875 C 9.285156 1.90625 8.628906 2.074219 7.996094 2.292969 C 6.8125 -0.347656 3.976562 0.0195312 3.945312 0.0234375 C 3.394531 0.105469 3.035156 0.449219 2.96875 0.960938 C 2.917969 1.316406 3.023438 1.671875 3.253906 1.957031 C 3.5 2.257812 3.863281 2.449219 4.246094 2.476562 C 4.808594 2.515625 5.710938 2.671875 5.894531 3.257812 C 2.707031 5.121094 0.609375 8.386719 0.609375 12 C 0.609375 15.566406 2.652344 18.789062 5.769531 20.667969 C 5.472656 21.046875 4.804688 21.183594 4.25 21.222656 C 3.863281 21.25 3.5 21.4375 3.253906 21.738281 C 3.023438 22.027344 2.917969 22.378906 2.96875 22.734375 C 3.035156 23.25 3.394531 23.589844 3.949219 23.671875 C 4.082031 23.691406 4.230469 23.703125 4.398438 23.703125 C 5.429688 23.703125 7.011719 23.277344 7.871094 21.664062 C 8.539062 21.902344 9.242188 22.085938 9.964844 22.203125 L 9.964844 22.765625 C 9.964844 23.445312 10.519531 24 11.203125 24 L 12.800781 24 C 13.480469 24 14.035156 23.445312 14.035156 22.765625 L 14.035156 22.203125 C 14.757812 22.085938 15.460938 21.902344 16.128906 21.664062 C 16.992188 23.277344 18.570312 23.703125 19.605469 23.703125 C 19.769531 23.703125 19.921875 23.691406 20.054688 23.671875 C 20.605469 23.589844 20.964844 23.25 21.03125 22.734375 C 21.082031 22.378906 20.976562 22.027344 20.746094 21.742188 C 20.5 21.4375 20.136719 21.25 19.75 21.222656 Z M 16.757812 2.578125 C 17.703125 0.546875 19.84375 0.816406 19.933594 0.828125 C 20.179688 0.867188 20.210938 0.960938 20.226562 1.070312 C 20.242188 1.199219 20.203125 1.332031 20.113281 1.445312 C 20.007812 1.570312 19.855469 1.652344 19.695312 1.664062 C 18.191406 1.769531 17.605469 2.351562 17.382812 2.863281 C 17.3125 2.828125 17.242188 2.800781 17.171875 2.765625 C 17.097656 2.734375 17.023438 2.699219 16.949219 2.667969 C 16.886719 2.636719 16.824219 2.605469 16.757812 2.578125 Z M 14.035156 5.523438 C 17.363281 6.308594 19.726562 8.96875 19.726562 12 C 19.726562 15.03125 17.363281 17.6875 14.035156 18.476562 Z M 9.964844 18.476562 C 6.636719 17.6875 4.269531 15.03125 4.269531 12 C 4.269531 8.96875 6.636719 6.308594 9.964844 5.523438 Z M 6.617188 2.863281 C 6.394531 2.351562 5.808594 1.769531 4.304688 1.664062 C 4.144531 1.652344 3.992188 1.570312 3.886719 1.445312 C 3.796875 1.332031 3.757812 1.199219 3.773438 1.070312 C 3.789062 0.960938 3.820312 0.867188 4.0625 0.832031 C 4.160156 0.816406 6.292969 0.535156 7.242188 2.578125 C 7.179688 2.605469 7.117188 2.636719 7.050781 2.664062 C 6.976562 2.699219 6.902344 2.734375 6.828125 2.769531 C 6.757812 2.800781 6.6875 2.828125 6.617188 2.863281 Z M 7.109375 21.363281 C 6.113281 23.121094 4.148438 22.878906 4.066406 22.867188 C 3.820312 22.832031 3.789062 22.738281 3.773438 22.625 C 3.757812 22.496094 3.796875 22.363281 3.886719 22.253906 C 3.992188 22.125 4.144531 22.046875 4.304688 22.035156 C 5.570312 21.945312 6.191406 21.523438 6.488281 21.074219 C 6.601562 21.128906 6.71875 21.183594 6.835938 21.234375 C 6.875 21.253906 6.910156 21.273438 6.949219 21.289062 C 7.003906 21.3125 7.054688 21.339844 7.109375 21.363281 Z M 7.460938 20.625 C 7.410156 20.601562 7.359375 20.582031 7.308594 20.558594 C 3.804688 18.972656 1.421875 15.679688 1.421875 12 C 1.421875 8.3125 3.808594 5.019531 7.320312 3.4375 C 7.378906 3.410156 7.4375 3.386719 7.496094 3.363281 C 8.273438 3.027344 9.097656 2.773438 9.964844 2.621094 L 9.964844 4.699219 C 6.175781 5.515625 3.457031 8.53125 3.457031 12 C 3.457031 15.464844 6.175781 18.484375 9.964844 19.300781 L 9.964844 21.378906 C 9.085938 21.222656 8.246094 20.964844 7.460938 20.625 Z M 13.21875 22.765625 C 13.21875 22.996094 13.03125 23.1875 12.796875 23.1875 L 11.199219 23.1875 C 10.96875 23.1875 10.78125 22.996094 10.78125 22.765625 L 10.78125 1.234375 C 10.78125 1.003906 10.96875 0.8125 11.199219 0.8125 L 12.796875 0.8125 C 13.03125 0.8125 13.21875 1.003906 13.21875 1.234375 Z M 14.035156 19.300781 C 17.824219 18.484375 20.542969 15.464844 20.542969 12 C 20.542969 8.53125 17.824219 5.511719 14.035156 4.699219 L 14.035156 2.617188 C 14.902344 2.773438 15.726562 3.027344 16.503906 3.363281 C 16.5625 3.386719 16.621094 3.410156 16.679688 3.4375 C 20.1875 5.019531 22.574219 8.3125 22.574219 12 C 22.574219 15.679688 20.195312 18.972656 16.691406 20.558594 C 16.640625 20.582031 16.589844 20.601562 16.539062 20.625 C 15.753906 20.964844 14.914062 21.222656 14.035156 21.378906 Z M 19.9375 22.867188 C 19.917969 22.871094 17.898438 23.132812 16.890625 21.363281 C 16.945312 21.339844 16.996094 21.3125 17.050781 21.289062 C 17.089844 21.273438 17.128906 21.253906 17.164062 21.234375 C 17.28125 21.183594 17.398438 21.128906 17.511719 21.074219 C 17.808594 21.523438 18.429688 21.945312 19.695312 22.035156 C 19.855469 22.046875 20.007812 22.125 20.113281 22.253906 C 20.203125 22.363281 20.242188 22.496094 20.226562 22.625 C 20.210938 22.738281 20.179688 22.832031 19.9375 22.867188 Z M 19.9375 22.867188"/>
</svg>

<svg xmlns="http://www.w3.org/2000/svg" width="32" height="32" viewBox="0 0 24 24">
    <path d="M19.75 21.223c-.559-.04-1.223-.176-1.52-.555 3.118-1.879 5.16-5.102 5.16-8.668 0-3.613-2.097-6.879-5.285-8.742.184-.586 1.086-.742 1.645-.781.387-.028.75-.22.996-.52.23-.285.336-.64.285-.996-.066-.512-.426-.856-.98-.938-.028-.003-2.863-.37-4.047 2.27a12.103 12.103 0 0 0-1.969-.496v-.563C14.035.554 13.48 0 12.801 0h-1.598c-.683 0-1.238.555-1.238 1.234v.563c-.68.11-1.336.277-1.969.496C6.812-.347 3.976.02 3.946.023c-.551.082-.91.426-.977.938-.051.355.054.71.285.996.246.3.61.492.992.52.563.039 1.465.195 1.649.78C2.707 5.122.609 8.388.609 12c0 3.566 2.043 6.79 5.16 8.668-.296.379-.964.516-1.519.555-.387.027-.75.215-.996.515-.23.29-.336.64-.285.996.066.516.426.856.98.938.133.02.281.031.45.031 1.03 0 2.613-.426 3.472-2.039.668.238 1.371.422 2.094.54v.562c0 .68.555 1.234 1.238 1.234h1.598c.68 0 1.234-.555 1.234-1.234v-.563c.723-.117 1.426-.3 2.094-.539.863 1.613 2.441 2.04 3.476 2.04.165 0 .317-.013.45-.032.55-.082.91-.422.976-.938a1.28 1.28 0 0 0-.285-.992 1.411 1.411 0 0 0-.996-.52zM16.758 2.578C17.703.547 19.844.816 19.934.828c.246.04.277.133.293.242a.504.504 0 0 1-.114.375.614.614 0 0 1-.418.22c-1.504.105-2.09.687-2.312 1.198-.07-.035-.14-.062-.211-.097-.074-.032-.149-.067-.223-.098-.062-.031-.125-.063-.191-.09zm-2.723 2.945c3.328.786 5.692 3.446 5.692 6.477s-2.364 5.688-5.692 6.477zm-4.07 12.954C6.637 17.687 4.27 15.03 4.27 12s2.367-5.691 5.695-6.477zM6.617 2.863c-.222-.511-.808-1.093-2.312-1.199a.614.614 0 0 1-.418-.219.504.504 0 0 1-.114-.375c.016-.11.047-.203.29-.238.097-.016 2.23-.297 3.18 1.746-.063.027-.126.059-.192.086l-.223.106c-.07.03-.14.058-.21.093zm.492 18.5c-.996 1.758-2.96 1.516-3.043 1.504-.246-.035-.277-.129-.293-.242a.49.49 0 0 1 .114-.371.598.598 0 0 1 .418-.219c1.265-.09 1.886-.512 2.183-.96.114.054.23.109.348.16.039.019.074.038.113.054.055.023.106.05.16.074zm.352-.738c-.05-.023-.102-.043-.152-.066-3.504-1.586-5.887-4.88-5.887-8.559 0-3.688 2.387-6.98 5.898-8.563.059-.027.117-.05.176-.074a11.02 11.02 0 0 1 2.469-.742V4.7C6.175 5.516 3.457 8.531 3.457 12c0 3.465 2.719 6.484 6.508 7.3v2.079a11.274 11.274 0 0 1-2.504-.754zm5.758 2.14c0 .231-.188.422-.422.422h-1.598a.422.422 0 0 1-.418-.421V1.234c0-.23.188-.421.418-.421h1.598c.234 0 .422.19.422.421zm.816-3.464c3.79-.817 6.508-3.836 6.508-7.301 0-3.469-2.719-6.488-6.508-7.3V2.616c.867.156 1.692.41 2.469.746.058.024.117.047.176.075C20.188 5.02 22.574 8.311 22.574 12c0 3.68-2.379 6.973-5.883 8.559-.05.023-.101.043-.152.066-.785.34-1.625.598-2.504.754zm5.902 3.566c-.019.004-2.039.266-3.046-1.504.054-.023.105-.05.16-.074.039-.016.078-.035.113-.055.117-.05.234-.105.348-.16.297.45.918.871 2.183.961.16.012.313.09.418.219a.49.49 0 0 1 .114.371c-.016.113-.047.207-.29.242zm0 0"/>
</svg>
